X: 17146
T: Hellulaulu Polska
R: waltz
M: 3/4
K: Emajor
eB eB eB|ef g2 B2|cd ed ed|cA B2 B2:|
cc/c/ cd cB|cc/c/ cd cB|ef g2 B2|cd ed ed|cA B2 B2:|

